(<OMC>)
(Exported by Otherplan release-build/release-build)
(11/6/15, 3:24 PM)
(Development of Otherplan is supported through sales on our store)
(Please considering purchasing products from http://othermachine.co/)
(Thanks‼)

(plan: Facing Plan)
(layer: Facing Plan/facing)
(tool: 1/8in Flat End Mill)
N1G21
N2G90
N3G94
N4G55
N5G53 G00 z-0.500
N6G00 x57.148 y57.152
N7G00 z2.000
N8G01 F70 z1.000
N9M3 S16500
N10G04 p1.500
N11G00 x57.148 y57.152
N12G01 F70 z0.500
N13G01 F25 z-0.051
N14G04 p0.100
N15G01 F1499 x82.541 y57.153
N16G01 F1499 x57.148 y57.152
N17G01 F1499 x57.148 y55.565
N18G01 F1499 x84.129 y55.566
N19G01 F1499 x84.128 y58.741
N20G01 F1499 x55.560 y58.739
N21G01 F1499 x55.561 y55.564
N22G01 F1499 x57.148 y55.565
N23G01 F1499 x57.148 y53.977
N24G01 F1499 x85.716 y53.978
N25G01 F1499 x85.716 y60.328
N26G01 F1499 x53.973 y60.327
N27G01 F1499 x53.973 y53.977
N28G01 F1499 x57.148 y53.977
N29G01 F1499 x57.148 y52.390
N30G01 F1499 x87.304 y52.391
N31G01 F1499 x87.303 y61.916
N32G01 F1499 x52.385 y61.914
N33G01 F1499 x52.386 y52.389
N34G01 F1499 x57.148 y52.390
N35G01 F1499 x57.148 y50.802
N36G01 F1499 x88.891 y50.803
N37G01 F1499 x88.891 y63.503
N38G01 F1499 x50.798 y63.502
N39G01 F1499 x50.798 y50.802
N40G01 F1499 x57.148 y50.802
N41G01 F1499 x57.148 y49.215
N42G01 F1499 x90.479 y49.216
N43G01 F1499 x90.478 y65.091
N44G01 F1499 x49.210 y65.089
N45G01 F1499 x49.211 y49.214
N46G01 F1499 x57.148 y49.215
N47G01 F1499 x57.148 y47.627
N48G01 F1499 x92.066 y47.628
N49G01 F1499 x92.066 y66.678
N50G01 F1499 x47.623 y66.677
N51G01 F1499 x47.623 y47.627
N52G01 F1499 x57.148 y47.627
N53G01 F1499 x57.148 y46.040
N54G01 F1499 x93.654 y46.041
N55G01 F1499 x93.653 y68.266
N56G01 F1499 x46.035 y68.264
N57G01 F1499 x46.036 y46.039
N58G01 F1499 x57.148 y46.040
N59G01 F1499 x57.148 y44.452
N60G01 F1499 x95.241 y44.453
N61G01 F1499 x95.240 y69.853
N62G01 F1499 x44.448 y69.852
N63G01 F1499 x44.448 y44.452
N64G01 F1499 x57.148 y44.452
N65G01 F1499 x57.148 y42.865
N66G01 F1499 x96.829 y42.866
N67G01 F1499 x96.828 y71.441
N68G01 F1499 x42.860 y71.439
N69G01 F1499 x42.861 y42.864
N70G01 F1499 x57.148 y42.865
N71G01 F1499 x57.149 y41.277
N72G01 F1499 x98.417 y41.279
N73G01 F1499 x98.415 y73.029
N74G01 F1499 x41.272 y73.026
N75G01 F1499 x41.274 y41.276
N76G01 F1499 x57.149 y41.277
N77G01 F1499 x57.149 y39.690
N78G01 F1499 x100.004 y39.691
N79G01 F1499 x100.003 y74.616
N80G01 F1499 x39.685 y74.614
N81G01 F1499 x39.686 y39.689
N82G01 F1499 x57.149 y39.690
N83G01 F1499 x57.149 y38.102
N84G01 F1499 x101.592 y38.104
N85G01 F1499 x101.590 y76.204
N86G01 F1499 x38.097 y76.201
N87G01 F1499 x38.099 y38.101
N88G01 F1499 x57.149 y38.102
N89G01 F1499 x57.149 y36.515
N90G01 F1499 x103.179 y36.516
N91G01 F1499 x103.178 y77.791
N92G01 F1499 x36.510 y77.789
N93G01 F1499 x36.511 y36.514
N94G01 F1499 x57.149 y36.515
N95G01 F1499 x57.149 y34.927
N96G01 F1499 x104.767 y34.929
N97G01 F1499 x104.765 y79.379
N98G01 F1499 x34.922 y79.376
N99G01 F1499 x34.924 y34.926
N100G01 F1499 x57.149 y34.927
N101G01 F1499 x57.149 y33.340
N102G01 F1499 x106.354 y33.341
N103G01 F1499 x106.353 y80.966
N104G01 F1499 x33.335 y80.964
N105G01 F1499 x33.336 y33.339
N106G01 F1499 x57.149 y33.340
N107G01 F1499 x57.149 y31.752
N108G01 F1499 x107.942 y31.754
N109G01 F1499 x107.940 y82.554
N110G01 F1499 x31.747 y82.551
N111G01 F1499 x31.749 y31.751
N112G01 F1499 x57.149 y31.752
N113G01 F1499 x57.149 y30.165
N114G01 F1499 x109.529 y30.166
N115G01 F1499 x109.527 y84.141
N116G01 F1499 x30.159 y84.139
N117G01 F1499 x30.161 y30.164
N118G01 F1499 x57.149 y30.165
N119G01 F1499 x57.149 y28.577
N120G01 F1499 x111.117 y28.579
N121G01 F1499 x111.115 y85.729
N122G01 F1499 x28.572 y85.726
N123G01 F1499 x28.574 y28.576
N124G01 F1499 x57.149 y28.577
N125G01 F1499 x57.149 y26.990
N126G01 F1499 x112.705 y26.992
N127G01 F1499 x112.702 y87.317
N128G01 F1499 x26.984 y87.313
N129G01 F1499 x26.987 y26.988
N130G01 F1499 x57.149 y26.990
N131G01 F1499 x57.149 y25.402
N132G01 F1499 x114.292 y25.404
N133G01 F1499 x114.290 y88.904
N134G01 F1499 x25.397 y88.901
N135G01 F1499 x25.399 y25.401
N136G01 F1499 x57.149 y25.402
N137G01 F1499 x57.149 y23.815
N138G01 F1499 x115.880 y23.817
N139G01 F1499 x115.877 y90.492
N140G01 F1499 x23.809 y90.488
N141G01 F1499 x23.812 y23.813
N142G01 F1499 x57.149 y23.815
N143G01 F1499 x57.149 y22.227
N144G01 F1499 x117.467 y22.229
N145G01 F1499 x117.465 y92.079
N146G01 F1499 x22.222 y92.076
N147G01 F1499 x22.224 y22.226
N148G01 F1499 x57.149 y22.227
N149G01 F1499 x57.149 y20.640
N150G01 F1499 x119.055 y20.642
N151G01 F1499 x119.052 y93.667
N152G01 F1499 x20.634 y93.663
N153G01 F1499 x20.637 y20.638
N154G01 F1499 x57.149 y20.640
N155G01 F1499 x57.149 y19.052
N156G01 F1499 x120.642 y19.054
N157G01 F1499 x120.640 y95.254
N158G01 F1499 x19.047 y95.251
N159G01 F1499 x19.049 y19.051
N160G01 F1499 x57.149 y19.052
N161G01 F1499 x57.149 y17.465
N162G01 F1499 x122.230 y17.467
N163G01 F1499 x122.227 y96.842
N164G01 F1499 x17.459 y96.838
N165G01 F1499 x17.462 y17.463
N166G01 F1499 x57.149 y17.465
N167G01 F1499 x57.149 y15.877
N168G01 F1499 x123.817 y15.879
N169G01 F1499 x123.814 y98.429
N170G01 F1499 x15.871 y98.426
N171G01 F1499 x15.874 y15.876
N172G01 F1499 x57.149 y15.877
N173G01 F1499 x57.149 y14.290
N174G01 F1499 x125.405 y14.292
N175G01 F1499 x125.402 y100.017
N176G01 F1499 x14.284 y100.013
N177G01 F1499 x14.287 y14.288
N178G01 F1499 x57.149 y14.290
N179G01 F1499 x57.150 y12.702
N180G01 F1499 x126.993 y12.705
N181G01 F1499 x126.989 y101.605
N182G01 F1499 x12.696 y101.600
N183G01 F1499 x12.700 y12.700
N184G01 F1499 x57.150 y12.702
N185G01 F1499 x57.150 y11.115
N186G01 F1499 x128.580 y11.117
N187G01 F1499 x128.577 y103.192
N188G01 F1499 x11.109 y103.188
N189G01 F1499 x11.112 y11.113
N190G01 F1499 x57.150 y11.115
N191G01 F1499 x57.150 y9.527
N192G01 F1499 x130.168 y9.530
N193G01 F1499 x130.164 y104.780
N194G01 F1499 x9.521 y104.775
N195G01 F1499 x9.525 y9.525
N196G01 F1499 x57.150 y9.527
N197G01 F1499 x57.150 y7.940
N198G01 F1499 x131.755 y7.942
N199G01 F1499 x131.752 y106.367
N200G01 F1499 x7.934 y106.363
N201G01 F1499 x7.937 y7.938
N202G01 F1499 x57.150 y7.940
N203G01 F1499 x57.150 y6.352
N204G01 F1499 x133.343 y6.355
N205G01 F1499 x133.339 y107.955
N206G01 F1499 x6.346 y107.950
N207G01 F1499 x6.350 y6.350
N208G01 F1499 x57.150 y6.352
N209G01 F1499 x57.150 y4.765
N210G01 F1499 x134.930 y4.767
N211G01 F1499 x134.927 y109.542
N212G01 F1499 x4.759 y109.538
N213G01 F1499 x4.762 y4.763
N214G01 F1499 x57.150 y4.765
N215G01 F1499 x57.150 y3.177
N216G01 F1499 x136.518 y3.180
N217G01 F1499 x136.514 y111.130
N218G01 F1499 x3.171 y111.125
N219G01 F1499 x3.175 y3.175
N220G01 F1499 x57.150 y3.177
N221G01 F1499 x57.150 y1.590
N222G01 F1499 x138.105 y1.592
N223G01 F1499 x138.101 y112.717
N224G01 F1499 x1.583 y112.713
N225G01 F1499 x1.587 y1.588
N226G01 F1499 x57.150 y1.590
N227G01 F1499 x57.150 y0.002
N228G01 F1499 x139.693 y0.005
N229G01 F1499 x139.689 y114.305
N230G01 F1499 x-0.004 y114.300
N231G01 F1499 x0.000 y-0.000
N232G01 F1499 x57.150 y0.002
N233G00 z1.000
N234G00 x57.148 y57.152
N235G01 F70 z0.500
N236G01 F25 z-0.102
N237G04 p0.100
N238G01 F1499 x82.541 y57.153
N239G01 F1499 x57.148 y57.152
N240G01 F1499 x57.148 y55.565
N241G01 F1499 x84.129 y55.566
N242G01 F1499 x84.128 y58.741
N243G01 F1499 x55.560 y58.739
N244G01 F1499 x55.561 y55.564
N245G01 F1499 x57.148 y55.565
N246G01 F1499 x57.148 y53.977
N247G01 F1499 x85.716 y53.978
N248G01 F1499 x85.716 y60.328
N249G01 F1499 x53.973 y60.327
N250G01 F1499 x53.973 y53.977
N251G01 F1499 x57.148 y53.977
N252G01 F1499 x57.148 y52.390
N253G01 F1499 x87.304 y52.391
N254G01 F1499 x87.303 y61.916
N255G01 F1499 x52.385 y61.914
N256G01 F1499 x52.386 y52.389
N257G01 F1499 x57.148 y52.390
N258G01 F1499 x57.148 y50.802
N259G01 F1499 x88.891 y50.803
N260G01 F1499 x88.891 y63.503
N261G01 F1499 x50.798 y63.502
N262G01 F1499 x50.798 y50.802
N263G01 F1499 x57.148 y50.802
N264G01 F1499 x57.148 y49.215
N265G01 F1499 x90.479 y49.216
N266G01 F1499 x90.478 y65.091
N267G01 F1499 x49.210 y65.089
N268G01 F1499 x49.211 y49.214
N269G01 F1499 x57.148 y49.215
N270G01 F1499 x57.148 y47.627
N271G01 F1499 x92.066 y47.628
N272G01 F1499 x92.066 y66.678
N273G01 F1499 x47.623 y66.677
N274G01 F1499 x47.623 y47.627
N275G01 F1499 x57.148 y47.627
N276G01 F1499 x57.148 y46.040
N277G01 F1499 x93.654 y46.041
N278G01 F1499 x93.653 y68.266
N279G01 F1499 x46.035 y68.264
N280G01 F1499 x46.036 y46.039
N281G01 F1499 x57.148 y46.040
N282G01 F1499 x57.148 y44.452
N283G01 F1499 x95.241 y44.453
N284G01 F1499 x95.240 y69.853
N285G01 F1499 x44.448 y69.852
N286G01 F1499 x44.448 y44.452
N287G01 F1499 x57.148 y44.452
N288G01 F1499 x57.148 y42.865
N289G01 F1499 x96.829 y42.866
N290G01 F1499 x96.828 y71.441
N291G01 F1499 x42.860 y71.439
N292G01 F1499 x42.861 y42.864
N293G01 F1499 x57.148 y42.865
N294G01 F1499 x57.149 y41.277
N295G01 F1499 x98.417 y41.279
N296G01 F1499 x98.415 y73.029
N297G01 F1499 x41.272 y73.026
N298G01 F1499 x41.274 y41.276
N299G01 F1499 x57.149 y41.277
N300G01 F1499 x57.149 y39.690
N301G01 F1499 x100.004 y39.691
N302G01 F1499 x100.003 y74.616
N303G01 F1499 x39.685 y74.614
N304G01 F1499 x39.686 y39.689
N305G01 F1499 x57.149 y39.690
N306G01 F1499 x57.149 y38.102
N307G01 F1499 x101.592 y38.104
N308G01 F1499 x101.590 y76.204
N309G01 F1499 x38.097 y76.201
N310G01 F1499 x38.099 y38.101
N311G01 F1499 x57.149 y38.102
N312G01 F1499 x57.149 y36.515
N313G01 F1499 x103.179 y36.516
N314G01 F1499 x103.178 y77.791
N315G01 F1499 x36.510 y77.789
N316G01 F1499 x36.511 y36.514
N317G01 F1499 x57.149 y36.515
N318G01 F1499 x57.149 y34.927
N319G01 F1499 x104.767 y34.929
N320G01 F1499 x104.765 y79.379
N321G01 F1499 x34.922 y79.376
N322G01 F1499 x34.924 y34.926
N323G01 F1499 x57.149 y34.927
N324G01 F1499 x57.149 y33.340
N325G01 F1499 x106.354 y33.341
N326G01 F1499 x106.353 y80.966
N327G01 F1499 x33.335 y80.964
N328G01 F1499 x33.336 y33.339
N329G01 F1499 x57.149 y33.340
N330G01 F1499 x57.149 y31.752
N331G01 F1499 x107.942 y31.754
N332G01 F1499 x107.940 y82.554
N333G01 F1499 x31.747 y82.551
N334G01 F1499 x31.749 y31.751
N335G01 F1499 x57.149 y31.752
N336G01 F1499 x57.149 y30.165
N337G01 F1499 x109.529 y30.166
N338G01 F1499 x109.527 y84.141
N339G01 F1499 x30.159 y84.139
N340G01 F1499 x30.161 y30.164
N341G01 F1499 x57.149 y30.165
N342G01 F1499 x57.149 y28.577
N343G01 F1499 x111.117 y28.579
N344G01 F1499 x111.115 y85.729
N345G01 F1499 x28.572 y85.726
N346G01 F1499 x28.574 y28.576
N347G01 F1499 x57.149 y28.577
N348G01 F1499 x57.149 y26.990
N349G01 F1499 x112.705 y26.992
N350G01 F1499 x112.702 y87.317
N351G01 F1499 x26.984 y87.313
N352G01 F1499 x26.987 y26.988
N353G01 F1499 x57.149 y26.990
N354G01 F1499 x57.149 y25.402
N355G01 F1499 x114.292 y25.404
N356G01 F1499 x114.290 y88.904
N357G01 F1499 x25.397 y88.901
N358G01 F1499 x25.399 y25.401
N359G01 F1499 x57.149 y25.402
N360G01 F1499 x57.149 y23.815
N361G01 F1499 x115.880 y23.817
N362G01 F1499 x115.877 y90.492
N363G01 F1499 x23.809 y90.488
N364G01 F1499 x23.812 y23.813
N365G01 F1499 x57.149 y23.815
N366G01 F1499 x57.149 y22.227
N367G01 F1499 x117.467 y22.229
N368G01 F1499 x117.465 y92.079
N369G01 F1499 x22.222 y92.076
N370G01 F1499 x22.224 y22.226
N371G01 F1499 x57.149 y22.227
N372G01 F1499 x57.149 y20.640
N373G01 F1499 x119.055 y20.642
N374G01 F1499 x119.052 y93.667
N375G01 F1499 x20.634 y93.663
N376G01 F1499 x20.637 y20.638
N377G01 F1499 x57.149 y20.640
N378G01 F1499 x57.149 y19.052
N379G01 F1499 x120.642 y19.054
N380G01 F1499 x120.640 y95.254
N381G01 F1499 x19.047 y95.251
N382G01 F1499 x19.049 y19.051
N383G01 F1499 x57.149 y19.052
N384G01 F1499 x57.149 y17.465
N385G01 F1499 x122.230 y17.467
N386G01 F1499 x122.227 y96.842
N387G01 F1499 x17.459 y96.838
N388G01 F1499 x17.462 y17.463
N389G01 F1499 x57.149 y17.465
N390G01 F1499 x57.149 y15.877
N391G01 F1499 x123.817 y15.879
N392G01 F1499 x123.814 y98.429
N393G01 F1499 x15.871 y98.426
N394G01 F1499 x15.874 y15.876
N395G01 F1499 x57.149 y15.877
N396G01 F1499 x57.149 y14.290
N397G01 F1499 x125.405 y14.292
N398G01 F1499 x125.402 y100.017
N399G01 F1499 x14.284 y100.013
N400G01 F1499 x14.287 y14.288
N401G01 F1499 x57.149 y14.290
N402G01 F1499 x57.150 y12.702
N403G01 F1499 x126.993 y12.705
N404G01 F1499 x126.989 y101.605
N405G01 F1499 x12.696 y101.600
N406G01 F1499 x12.700 y12.700
N407G01 F1499 x57.150 y12.702
N408G01 F1499 x57.150 y11.115
N409G01 F1499 x128.580 y11.117
N410G01 F1499 x128.577 y103.192
N411G01 F1499 x11.109 y103.188
N412G01 F1499 x11.112 y11.113
N413G01 F1499 x57.150 y11.115
N414G01 F1499 x57.150 y9.527
N415G01 F1499 x130.168 y9.530
N416G01 F1499 x130.164 y104.780
N417G01 F1499 x9.521 y104.775
N418G01 F1499 x9.525 y9.525
N419G01 F1499 x57.150 y9.527
N420G01 F1499 x57.150 y7.940
N421G01 F1499 x131.755 y7.942
N422G01 F1499 x131.752 y106.367
N423G01 F1499 x7.934 y106.363
N424G01 F1499 x7.937 y7.938
N425G01 F1499 x57.150 y7.940
N426G01 F1499 x57.150 y6.352
N427G01 F1499 x133.343 y6.355
N428G01 F1499 x133.339 y107.955
N429G01 F1499 x6.346 y107.950
N430G01 F1499 x6.350 y6.350
N431G01 F1499 x57.150 y6.352
N432G01 F1499 x57.150 y4.765
N433G01 F1499 x134.930 y4.767
N434G01 F1499 x134.927 y109.542
N435G01 F1499 x4.759 y109.538
N436G01 F1499 x4.762 y4.763
N437G01 F1499 x57.150 y4.765
N438G01 F1499 x57.150 y3.177
N439G01 F1499 x136.518 y3.180
N440G01 F1499 x136.514 y111.130
N441G01 F1499 x3.171 y111.125
N442G01 F1499 x3.175 y3.175
N443G01 F1499 x57.150 y3.177
N444G01 F1499 x57.150 y1.590
N445G01 F1499 x138.105 y1.592
N446G01 F1499 x138.101 y112.717
N447G01 F1499 x1.583 y112.713
N448G01 F1499 x1.587 y1.588
N449G01 F1499 x57.150 y1.590
N450G01 F1499 x57.150 y0.002
N451G01 F1499 x139.693 y0.005
N452G01 F1499 x139.689 y114.305
N453G01 F1499 x-0.004 y114.300
N454G01 F1499 x0.000 y-0.000
N455G01 F1499 x57.150 y0.002
N456G00 z1.000
N457G00 x57.148 y57.152
N458G01 F70 z0.500
N459G01 F25 z-0.152
N460G04 p0.100
N461G01 F1499 x82.541 y57.153
N462G01 F1499 x57.148 y57.152
N463G01 F1499 x57.148 y55.565
N464G01 F1499 x84.129 y55.566
N465G01 F1499 x84.128 y58.741
N466G01 F1499 x55.560 y58.739
N467G01 F1499 x55.561 y55.564
N468G01 F1499 x57.148 y55.565
N469G01 F1499 x57.148 y53.977
N470G01 F1499 x85.716 y53.978
N471G01 F1499 x85.716 y60.328
N472G01 F1499 x53.973 y60.327
N473G01 F1499 x53.973 y53.977
N474G01 F1499 x57.148 y53.977
N475G01 F1499 x57.148 y52.390
N476G01 F1499 x87.304 y52.391
N477G01 F1499 x87.303 y61.916
N478G01 F1499 x52.385 y61.914
N479G01 F1499 x52.386 y52.389
N480G01 F1499 x57.148 y52.390
N481G01 F1499 x57.148 y50.802
N482G01 F1499 x88.891 y50.803
N483G01 F1499 x88.891 y63.503
N484G01 F1499 x50.798 y63.502
N485G01 F1499 x50.798 y50.802
N486G01 F1499 x57.148 y50.802
N487G01 F1499 x57.148 y49.215
N488G01 F1499 x90.479 y49.216
N489G01 F1499 x90.478 y65.091
N490G01 F1499 x49.210 y65.089
N491G01 F1499 x49.211 y49.214
N492G01 F1499 x57.148 y49.215
N493G01 F1499 x57.148 y47.627
N494G01 F1499 x92.066 y47.628
N495G01 F1499 x92.066 y66.678
N496G01 F1499 x47.623 y66.677
N497G01 F1499 x47.623 y47.627
N498G01 F1499 x57.148 y47.627
N499G01 F1499 x57.148 y46.040
N500G01 F1499 x93.654 y46.041
N501G01 F1499 x93.653 y68.266
N502G01 F1499 x46.035 y68.264
N503G01 F1499 x46.036 y46.039
N504G01 F1499 x57.148 y46.040
N505G01 F1499 x57.148 y44.452
N506G01 F1499 x95.241 y44.453
N507G01 F1499 x95.240 y69.853
N508G01 F1499 x44.448 y69.852
N509G01 F1499 x44.448 y44.452
N510G01 F1499 x57.148 y44.452
N511G01 F1499 x57.148 y42.865
N512G01 F1499 x96.829 y42.866
N513G01 F1499 x96.828 y71.441
N514G01 F1499 x42.860 y71.439
N515G01 F1499 x42.861 y42.864
N516G01 F1499 x57.148 y42.865
N517G01 F1499 x57.149 y41.277
N518G01 F1499 x98.417 y41.279
N519G01 F1499 x98.415 y73.029
N520G01 F1499 x41.272 y73.026
N521G01 F1499 x41.274 y41.276
N522G01 F1499 x57.149 y41.277
N523G01 F1499 x57.149 y39.690
N524G01 F1499 x100.004 y39.691
N525G01 F1499 x100.003 y74.616
N526G01 F1499 x39.685 y74.614
N527G01 F1499 x39.686 y39.689
N528G01 F1499 x57.149 y39.690
N529G01 F1499 x57.149 y38.102
N530G01 F1499 x101.592 y38.104
N531G01 F1499 x101.590 y76.204
N532G01 F1499 x38.097 y76.201
N533G01 F1499 x38.099 y38.101
N534G01 F1499 x57.149 y38.102
N535G01 F1499 x57.149 y36.515
N536G01 F1499 x103.179 y36.516
N537G01 F1499 x103.178 y77.791
N538G01 F1499 x36.510 y77.789
N539G01 F1499 x36.511 y36.514
N540G01 F1499 x57.149 y36.515
N541G01 F1499 x57.149 y34.927
N542G01 F1499 x104.767 y34.929
N543G01 F1499 x104.765 y79.379
N544G01 F1499 x34.922 y79.376
N545G01 F1499 x34.924 y34.926
N546G01 F1499 x57.149 y34.927
N547G01 F1499 x57.149 y33.340
N548G01 F1499 x106.354 y33.341
N549G01 F1499 x106.353 y80.966
N550G01 F1499 x33.335 y80.964
N551G01 F1499 x33.336 y33.339
N552G01 F1499 x57.149 y33.340
N553G01 F1499 x57.149 y31.752
N554G01 F1499 x107.942 y31.754
N555G01 F1499 x107.940 y82.554
N556G01 F1499 x31.747 y82.551
N557G01 F1499 x31.749 y31.751
N558G01 F1499 x57.149 y31.752
N559G01 F1499 x57.149 y30.165
N560G01 F1499 x109.529 y30.166
N561G01 F1499 x109.527 y84.141
N562G01 F1499 x30.159 y84.139
N563G01 F1499 x30.161 y30.164
N564G01 F1499 x57.149 y30.165
N565G01 F1499 x57.149 y28.577
N566G01 F1499 x111.117 y28.579
N567G01 F1499 x111.115 y85.729
N568G01 F1499 x28.572 y85.726
N569G01 F1499 x28.574 y28.576
N570G01 F1499 x57.149 y28.577
N571G01 F1499 x57.149 y26.990
N572G01 F1499 x112.705 y26.992
N573G01 F1499 x112.702 y87.317
N574G01 F1499 x26.984 y87.313
N575G01 F1499 x26.987 y26.988
N576G01 F1499 x57.149 y26.990
N577G01 F1499 x57.149 y25.402
N578G01 F1499 x114.292 y25.404
N579G01 F1499 x114.290 y88.904
N580G01 F1499 x25.397 y88.901
N581G01 F1499 x25.399 y25.401
N582G01 F1499 x57.149 y25.402
N583G01 F1499 x57.149 y23.815
N584G01 F1499 x115.880 y23.817
N585G01 F1499 x115.877 y90.492
N586G01 F1499 x23.809 y90.488
N587G01 F1499 x23.812 y23.813
N588G01 F1499 x57.149 y23.815
N589G01 F1499 x57.149 y22.227
N590G01 F1499 x117.467 y22.229
N591G01 F1499 x117.465 y92.079
N592G01 F1499 x22.222 y92.076
N593G01 F1499 x22.224 y22.226
N594G01 F1499 x57.149 y22.227
N595G01 F1499 x57.149 y20.640
N596G01 F1499 x119.055 y20.642
N597G01 F1499 x119.052 y93.667
N598G01 F1499 x20.634 y93.663
N599G01 F1499 x20.637 y20.638
N600G01 F1499 x57.149 y20.640
N601G01 F1499 x57.149 y19.052
N602G01 F1499 x120.642 y19.054
N603G01 F1499 x120.640 y95.254
N604G01 F1499 x19.047 y95.251
N605G01 F1499 x19.049 y19.051
N606G01 F1499 x57.149 y19.052
N607G01 F1499 x57.149 y17.465
N608G01 F1499 x122.230 y17.467
N609G01 F1499 x122.227 y96.842
N610G01 F1499 x17.459 y96.838
N611G01 F1499 x17.462 y17.463
N612G01 F1499 x57.149 y17.465
N613G01 F1499 x57.149 y15.877
N614G01 F1499 x123.817 y15.879
N615G01 F1499 x123.814 y98.429
N616G01 F1499 x15.871 y98.426
N617G01 F1499 x15.874 y15.876
N618G01 F1499 x57.149 y15.877
N619G01 F1499 x57.149 y14.290
N620G01 F1499 x125.405 y14.292
N621G01 F1499 x125.402 y100.017
N622G01 F1499 x14.284 y100.013
N623G01 F1499 x14.287 y14.288
N624G01 F1499 x57.149 y14.290
N625G01 F1499 x57.150 y12.702
N626G01 F1499 x126.993 y12.705
N627G01 F1499 x126.989 y101.605
N628G01 F1499 x12.696 y101.600
N629G01 F1499 x12.700 y12.700
N630G01 F1499 x57.150 y12.702
N631G01 F1499 x57.150 y11.115
N632G01 F1499 x128.580 y11.117
N633G01 F1499 x128.577 y103.192
N634G01 F1499 x11.109 y103.188
N635G01 F1499 x11.112 y11.113
N636G01 F1499 x57.150 y11.115
N637G01 F1499 x57.150 y9.527
N638G01 F1499 x130.168 y9.530
N639G01 F1499 x130.164 y104.780
N640G01 F1499 x9.521 y104.775
N641G01 F1499 x9.525 y9.525
N642G01 F1499 x57.150 y9.527
N643G01 F1499 x57.150 y7.940
N644G01 F1499 x131.755 y7.942
N645G01 F1499 x131.752 y106.367
N646G01 F1499 x7.934 y106.363
N647G01 F1499 x7.937 y7.938
N648G01 F1499 x57.150 y7.940
N649G01 F1499 x57.150 y6.352
N650G01 F1499 x133.343 y6.355
N651G01 F1499 x133.339 y107.955
N652G01 F1499 x6.346 y107.950
N653G01 F1499 x6.350 y6.350
N654G01 F1499 x57.150 y6.352
N655G01 F1499 x57.150 y4.765
N656G01 F1499 x134.930 y4.767
N657G01 F1499 x134.927 y109.542
N658G01 F1499 x4.759 y109.538
N659G01 F1499 x4.762 y4.763
N660G01 F1499 x57.150 y4.765
N661G01 F1499 x57.150 y3.177
N662G01 F1499 x136.518 y3.180
N663G01 F1499 x136.514 y111.130
N664G01 F1499 x3.171 y111.125
N665G01 F1499 x3.175 y3.175
N666G01 F1499 x57.150 y3.177
N667G01 F1499 x57.150 y1.590
N668G01 F1499 x138.105 y1.592
N669G01 F1499 x138.101 y112.717
N670G01 F1499 x1.583 y112.713
N671G01 F1499 x1.587 y1.588
N672G01 F1499 x57.150 y1.590
N673G01 F1499 x57.150 y0.002
N674G01 F1499 x139.693 y0.005
N675G01 F1499 x139.689 y114.305
N676G01 F1499 x-0.004 y114.300
N677G01 F1499 x0.000 y-0.000
N678G01 F1499 x57.150 y0.002
N679G00 z1.000
N680M5
N681G53 G00 z-0.500
N682M30
N683
(MSG@end)
